X: 10212
T: Mrs MORTHLAND'S REEL
R: reel
B: "Edinburgh Repository of Music" v.1 p.21 #2
F: http://digital.nls.uk/special-collections-of-printed-music/pageturner.cfm?id=87776133
Z: 2015 John Chambers <jc:trillian.mit.edu>
M: C|
L: 1/8
K: C
g |\
{f}e2dc GBce | fdec fdec |\
{f}e2dc GAcd | egde c/c/c c :|\
f |\
ecce fddf | ecgc (B/c/d) BG |
ecce fddf | ecdB Tc2cf |\
ecce fddf | ecgc (B/c/d) BG |\
ecce fdgf | ecdB c2c |]
